!!!OTL: DER ALTE BARBAROSSA DER KAISER FRIEDERICH
!!!ARE: Europa, Mitteleuropa, Deutschland
!!!SCT: B0080
!!!YEM: Copyright 1995, estate of Helmut Schaffrath.
**kern
*ICvox
*Ivox
*M4/4
*k[f#]
*G:
{4B
=1
4.e
8g
4f#
4e
=2
2d
4g}
{4g
=3
4a
4cc
4b
4a
=4
2g
4r}
{4b
=5
4.b
8cc
4dd
4dd
=6
4.dd
8cc
4cc}
{4b
=7
4a
4g
4f#
4a
=8
2g
4r}
==
!!!AGN: Helden -, Ehren -, Gedaechtnis -, Kriegs - Lied
!!!ONB: ESAC (Essen Associative Code) Database: BOEHME
!!!AMT: simple quadruple
!!!AIN: vox
!!!EED: Helmut Schaffrath
!!!EEV: 1.0
*-
